X:76
T:Little Diamond, The
T:Girl from Lettermore, The
R:polka
H:On the Begley & Cooney recording it is called "The Magic Slipper",
H:which is actually the name of another polka (#119) which was recorded in the
H:same medley as this polka in 1936 by James Morrison and Tom Carmody.
D:Begley & Cooney: Meitheal
Z:id:hn-polka-76
M:2/4
L:1/8
K:D
A>B AF|DF Ad|A>B AF|GF EF/E/|DE FG|AB cd|e>d ce|1 d2 dB:|2 d2 de||
fd ge|fd cB|Ad cd|fe ed/e/|fd ge|fd cB|Ag ec|d2 d>e|
fa ge|fd cB|Ad cd|fe ed/e/|fd ge|fd cB|Ag ec|d2 dB||
<end>
<start>
